src/categories-icons-sprite/categories/svg-cat-gifts-gifts.svg

<svg width="23" height="30" viewBox="0 0 23 30" fill="none" xmlns="http://www.w3.org/2000/svg">
<path class="p-B35F49" d="M21.0937 0V9.62108L11.4258 8.33782L3.30468 7.24798L0 3.57422L11.4258 1.57031L21.0937 0Z" fill="#AFD9F6"/>
<path class="p-99503D" d="M21.0937 0V9.62108L11.4258 8.33782V1.57031L21.0937 0Z" fill="#65B3E7"/>
<path class="p-FED966" d="M0 3.57422V30H22.8515V3.57422H0Z" fill="#58ADE5"/>
<path class="p-FDBF00" d="M22.8516 3.57422H11.4258V30H22.8516V3.57422Z" fill="#4D98CB"/>
<path class="p-FF6498" d="M12.3047 12.3633H10.5469V16.7578H12.3047V12.3633Z" fill="#5FBEFF"/>
<path class="p-FFF5F5" d="M12.3047 8.84766H10.5469V10.6055H12.3047V8.84766Z" fill="#AFD9F6"/>
<path class="p-FF3980" d="M15.8203 12.3633H14.0625V16.7578H15.8203V12.3633Z" fill="#76B7E2"/>
<path class="p-FFF5F5" d="M15.8203 8.84766H14.0625V10.6055H15.8203V8.84766Z" fill="#65B3E7"/>
<path class="p-FF6498" d="M8.78906 12.3633H7.03125V16.7578H8.78906V12.3633Z" fill="#5FBEFF"/>
<path class="p-FFF5F5" d="M8.78906 8.84766H7.03125V10.6055H8.78906V8.84766Z" fill="#AFD9F6"/>
<path class="p-FFF5F5" d="M15.8203 24.668H7.03125V26.4844H15.8203V24.668Z" fill="#AFD9F6"/>
<path class="p-EFE2DD" d="M12.3047 8.84766H11.4258V10.6055H12.3047V8.84766Z" fill="#65B3E7"/>
<path class="p-EFE2DD" d="M15.8203 24.668H11.4258V26.4844H15.8203V24.668Z" fill="#65B3E7"/>
<path class="p-99503D" d="M17.5781 15.8789H11.4258V22.9101H17.5781V15.8789Z" fill="black"/>
<path class="p-FF3980" d="M12.3047 12.3633H11.4258V16.7578H12.3047V12.3633Z" fill="#76B7E2"/>
<path class="p-B35F49" d="M5.27344 15.8789V22.9101H17.5781V15.8789H5.27344Z" fill="#5FBEFF"/>
<path class="p-99503D" d="M17.5781 15.8789H11.4258V22.9101H17.5781V15.8789Z" fill="#76B7E2"/>
</svg>

<svg width="23" height="30" fill="none" xmlns="http://www.w3.org/2000/svg"><path class="p-B35F49" d="M21.094 0v9.621l-9.668-1.283-8.121-1.09L0 3.574 11.426 1.57 21.094 0z" fill="#AFD9F6"/><path class="p-99503D" d="M21.094 0v9.621l-9.668-1.283V1.57L21.094 0z" fill="#65B3E7"/><path class="p-FED966" d="M0 3.574V30h22.852V3.574H0z" fill="#58ADE5"/><path class="p-FDBF00" d="M22.852 3.574H11.426V30h11.426V3.574z" fill="#4D98CB"/><path class="p-FF6498" d="M12.305 12.363h-1.758v4.395h1.758v-4.395z" fill="#5FBEFF"/><path class="p-FFF5F5" d="M12.305 8.848h-1.758v1.757h1.758V8.848z" fill="#AFD9F6"/><path class="p-FF3980" d="M15.82 12.363h-1.758v4.395h1.758v-4.395z" fill="#76B7E2"/><path class="p-FFF5F5" d="M15.82 8.848h-1.758v1.757h1.758V8.848z" fill="#65B3E7"/><path class="p-FF6498" d="M8.79 12.363H7.03v4.395H8.79v-4.395z" fill="#5FBEFF"/><path class="p-FFF5F5" d="M8.79 8.848H7.03v1.757H8.79V8.848zM15.82 24.668H7.031v1.816h8.79v-1.816z" fill="#AFD9F6"/><path class="p-EFE2DD" d="M12.305 8.848h-.88v1.757h.88V8.848zM15.82 24.668h-4.394v1.816h4.394v-1.816z" fill="#65B3E7"/><path class="p-99503D" d="M17.578 15.879h-6.152v7.031h6.152V15.88z" fill="#000"/><path class="p-FF3980" d="M12.305 12.363h-.88v4.395h.88v-4.395z" fill="#76B7E2"/><path class="p-B35F49" d="M5.273 15.879v7.031h12.305V15.88H5.273z" fill="#5FBEFF"/><path class="p-99503D" d="M17.578 15.879h-6.152v7.031h6.152V15.88z" fill="#76B7E2"/></svg>
